X: 13
T: The Africans
%R: reel
B: "Twenty Four Country Dances with Figures for the Year 1809", Button & Whitaker, p.7 #1
F: http://www.vwml.org/browse/browse-collections-dance-tune-books/browse-button1809
Z: 2014 John Chambers <jc:trillian.mit.edu>
M: C|
L: 1/8
K: D
% - - - - - - - - - - - - - - - - - - - - - - - - - - - - -
A2 |\
(dc)(dA) (FD)(dA) | (BG)(ge) (dc)(BA) |\
(dc)(dA) (FD)(dA) | (BG)(ec) d2 :|\
|: (cd) |\
(ef)(ed) (ce)(ae) | (fg)(fe) (df)(af) |
g2(3(efg) f2(3(def) | (ef)(ed) (cA)(Bc) |\
(dc)(dA) (FD)(dA) | (BG)(ge) (dc)(BA) |\
(dc)(dA) (FD)(dA) | (BG)(ec) d2 :|
% - - - - - - - - - - Dance description - - - - - - - - - -
%%begintext align
%% Hands 4 back again, down the mid: up again,
%% Allemande & Swing corners.
%%endtext

%%sep 1 1 500
%%sep 1 1 500
